X:10114
T:Maid of Mount Cisco
M:C
L:1/8
K:A Dorian
EAA2 BAA2|EAA2 BGAG|EGG2 AGG2|EGG2 EGD2|!
EAA2 BAA2|EAA2 BABd|egg2 afge|dBGA BAA2:|!
A3B dBAB|G2BG dGBG|A3B dBAB|egfa gedB:|!
eaa2 bgag|e2dB GABd|eaa2 bgag|e2de g2eg|!
a3f gage|dedB GABd|eAA2 efge|dBGA BAA2:|!
